X: 1235
T: The Ladies' Pantalettes
M:C|
L:1/8
R:Reel
B:O'Neill's 1235
N:Collected by F. O'Neill
Z:Transcribed by Trish O'Neil
K:G
BdcAG2~G2|ABcAd2cA|BdcAG2Tg2|fdcA dBcA|
BdcAG2~G2|ABcAd2cA|BdcAG2Tg2|fdcA"End" BGG2||
fgafg2af|gbag fdd2|fgaf gbag|fdcA BGG2|
fgafg2af|gbag fdd2|defg abag|fdcA "D.C."BGAc||


